!!!OTL: AUF SCHWAERMT UND TRINKT
!!!ARE: Europa, Mitteleuropa, Deutschland
!!!SCT: F0507
!!!YEM: Copyright 1995, estate of Helmut Schaffrath.
**kern
*ICvox
*Ivox
*M4/4
*k[f#c#]
*D:
{8A
8F#
8G
=1
4.A
8A
4.f#
8d
=2
4c#
4d
8r}
{8d
8c#
8d
=3
4.e
8c#
8B
8A
8B
8c#
=4
2A
8r}
{8A
8E
8F#
=5
4.G
8G
8G
8B
8A
8G
=6
8G
8F#
4F#
8r}
{8F#
8E
8F#
=7
4.G
8G
8G
8B
8A
8G
=8
4G
4F#
8r}
{8A
8A
8A
=9
4.f#
8d
4.e
8c#
=10
2d
8r}
{8d
8c#
8B
=11
4.A
8A
4A
8B
8c#
=12
2d
8r}
{8A
8A
8A
=13
4.f#
8d
4.e
8c#
=14
2d
8r}
{8d
8c#
8B
=15
4.A
8A
4A
8B
8c#
=16
2d
8r}
==
!!!AGN: Studenten -, Trink - Lied
!!!ONB: ESAC (Essen Associative Code) Database: FINK
!!!AMT: simple quadruple
!!!AIN: vox
!!!EED: Helmut Schaffrath
!!!EEV: 1.0
*-
